X: 16089
T: Green Fields Of Woodford, The
R: jig
M: 6/8
K: Gmajor
d|:dBA ~G3|EDE ~G3|edB dBA|B2e e/f/ge|
dBA G2E|EDE ~G3|AGE A2B|1 GED D2d:|2 GED D2c||
BGG dGG|ede dBA|BGG dGG|edB ~A3|
BGG dGG|ede dBA|GAB AGE|GED DA/B/c|
BGG dGG|ede dBA|BGG dGG|edB ~A3|
BGG de/f/g|age dBA|GAB AGE|GED D2d||

